X:134
T:Rakish Paddy
K:Ador
M:4/4
R:Reel
C:Traditional
S:Taylor Stirm
AB |: c2 AB c2 AB | cBAG EGGA | Ddd^c defe | dcAG FGAB |
c2 AB c2 AB | cBAG EGGA | DEFG ABcA | dcAG FGAB :|
|: egg2 agg2 | egg2 ed^cd | eaa2 baa2 | eaag ed^cd |
egg2 agg2 | fed^c defg | afge fde^c | d=cAG E2 D2 :|

